X: 116006
T: LORD SALTOUN
Q: "Reel."
R:  Reel.
%R: reel
B: James Kerr "Merry Melodies" v.1 p.16 s.0 #6
Z: 2017 John Chambers <jc:trillian.mit.edu>
M: C
L: 1/8
K: A
uc |\
eaga bagf | eagf Tfedc | B2Bc (cB)Bc | dBfB bBfB |\
eaga bagf | eagf Tfedc | ABcd efed | cAAB cA A |]
e |\
cAEC A,CEA | ceag Tfedc | B2Bc (cB)Bc | dBfB bBfB |\
cAEC A,CEA | ceag Tfedc | ABcd efed | cAAB cA A |]\
{A}"_Fine"A4 ||

% %newpage
%%sep 1 1 500
%%sep 1 1 500
%%center Set. 27th

%%sep 1 1 500
%%sep 1 1 500

